svgs/sharp-regular/person-harassing.svg

<svg xmlns="http://www.w3.org/2000/svg" viewBox="0 0 576 512"><!--! Font Awesome Pro 6.6.0 by @fontawesome - https://fontawesome.com License - https://fontawesome.com/license (Commercial License) Copyright 2024 Fonticons, Inc. --><path d="M192 96a48 48 0 1 0 0-96 48 48 0 1 0 0 96zM44.9 299.8L96 209.5 96 488l0 24 48 0 0-24 0-136 32 0 0 136 0 24 48 0 0-24 0-273.8 61.6 73.3 36.7-30.9-100.9-120-7.2-8.6-11.2 0-102.2 0-14 0L80 140.2 3.1 276.2l41.8 23.6zM144 176l32 0 0 128-32 0 0-128zM304 32l-16 0 0 32 16 0 56 0 16 0 0-32-16 0-56 0zM496 240a48 48 0 1 0 -96 0 48 48 0 1 0 96 0zm16 56l-9.9 0-7 7-32 32-7 7 0 9.9 0 61-37.7-44.5L379 372.3 315 487.5l42 23.3L404.1 426 449 479.1c13.2 15.6 31.1 26.3 50.7 30.7c5.2 1.5 10.7 2.2 16.3 2.2c.6 0 1.2 0 1.8 0c.7 0 1.5 0 2.2 0l0-.1c31.3-2.1 56-28.1 56-59.9l0-132 0-24-24 0-40 0zm5.4 167.9c-1.9-.1-3.7-.3-5.6-.7c-4.6-1.7-7.8-6.1-7.8-11.2l0-90.1L521.9 344l6.1 0 0 108c0 6.2-4.6 11.2-10.6 11.9zM272.8 90.5l-14.3 28.6 14.3 7.2 48 24 14.3 7.2 14.3-28.6-14.3-7.2-48-24-14.3-7.2z"/></svg>

<svg xmlns="http://www.w3.org/2000/svg" viewBox="0 0 576 512"><!--! Font Awesome Pro 6.4.0 by @fontawesome - https://fontawesome.com License - https://fontawesome.com/license (Commercial License) Copyright 2023 Fonticons, Inc. --><path d="M192 96a48 48 0 1 0 0-96 48 48 0 1 0 0 96zM44.9 299.8L96 209.5V488v24h48V488 352h32V488v24h48V488 214.2l61.6 73.3 36.7-30.9-100.9-120-7.2-8.6H203.1 100.9h-14L80 140.2 3.1 276.2l41.8 23.6zM144 176h32V304H144V176zM304 32H288V64h16 56 16V32H360 304zM496 240a48 48 0 1 0 -96 0 48 48 0 1 0 96 0zm16 56h-9.9l-7 7-32 32-7 7V352v61l-37.7-44.5L379 372.3 315 487.5l42 23.3L404.1 426 449 479.1c13.2 15.6 31.1 26.3 50.7 30.7c5.2 1.5 10.7 2.2 16.3 2.2c.6 0 1.2 0 1.8 0c.7 0 1.5 0 2.2 0v-.1c31.3-2.1 56-28.1 56-59.9V320 296H552 512zm5.4 167.9c-1.9-.1-3.7-.3-5.6-.7c-4.6-1.7-7.8-6.1-7.8-11.2V361.9L521.9 344H528V452c0 6.2-4.6 11.2-10.6 11.9zM272.8 90.5l-14.3 28.6 14.3 7.2 48 24 14.3 7.2 14.3-28.6-14.3-7.2-48-24-14.3-7.2z"/></svg>
